X:1
T:Drover's Dream
M:4/4
L:1/16
K:F
 C4| F3 G A3 G F4 C3 C| D3 E F3 D C4 C3 C| F3 F F3 F F3 F E3 F| G4 z4|\
 C3 C| F3 G A3 G F4 C3 C| D3 E F3 D C4 F3 G| A3 A A3 F G3 G G3 E| F8 z4|\
 F3 G| A3 A A3 A A4 A3 B| c3 c c3 A F4 z2 C2| F3 F F3 F F3 F E3 F|\
 G8 z4| C3 C| F3 G A3 G F4 C3 C| D3 E F3 D C4 F3- G| A3 A A3 F G3 G G3 E|\
 F12||
